X: 153
T: the Countess of Mansfield
C: William Shepherd (17??-1812)
R: strathspey
Q: "Slow"
B: William Shepherd "2nd Collection" 1800 p.15 #3
F: http://imslp.org/wiki/File:PMLP73094-Shepherd_Collections_HMT.pdf
Z: 2012 John Chambers <jc:trillian.mit.edu>
M: 4/4
L: 1/16
K: Dm
fe | d3DD3E TF3GA3=B | c3d c2GF E2C2- C2Tfe \
   | d3DD3E TF3GA3F | D3d e2.d.^c Td2D2D2 ||
fe |Td3DD3E F3GA3=B | Tc3d c2GF E2C2- C2Tfe \
   |.D2.d2.E2.d2 .F2.d2.G2.d2 | A3f {f}e2d^c Td2D2D2 |]
fe |Td3ef3g {fg}a3gf2d2 | Tc3c efgf e2c2- c2fe \
   |Td3ef3g {fg}a3gf2d2 | A3f {f}e2d^c d2D2D2 ||
fe | d3ef3g {fg}a3gf2d2 | Tc3c efge e2c2 c2Tfe \
   |.D2.d2.E2.d2 .F2.d2.G2.d2 | D3d efge f2d2Td2 |]
